!!!COM: Beethoven, Ludwig van
!!!CDT: 1770///-1827///
!!!OTL: Piano Sonata no. 23 in F minor
!!!OTP: appassionata
!!!ODT: 1804///-1805///
!!!ODE: Comte Franz de Brunswick
!!!OPS: 57
!!!OMV: 2
!!!OMD: Andante con moto
**kern	**kern	**dynam
*staff2	*staff1	*staff1/2
*Ipiano	*Ipiano	*Ipiano
*>[A,A,B,B,C,D,D1,D,D2,E,E1,E,E2,F,F1,F,F2,G,G1,G,G2,H]	*>[A,A,B,B,C,D,D1,D,D2,E,E1,E,E2,F,F1,F,F2,G,G1,G,G2,H]	*>[A,A,B,B,C,D,D1,D,D2,E,E1,E,E2,F,F1,F,F2,G,G1,G,G2,H]
*>norep[A,B,C,D,D2,E,E2,F,F2,G,G2,H]	*>norep[A,B,C,D,D2,E,E2,F,F2,G,G2,H]	*>norep[A,B,C,D,D2,E,E2,F,F2,G,G2,H]
*>A	*>A	*>A
*clefF4	*clefF4	*clefF4
*k[b-e-a-d-g-]	*k[b-e-a-d-g-]	*k[b-e-a-d-g-]
*D-:	*D-:	*D-:
*M2/4	*M2/4	*M2/4
*MM60	*MM60	*MM60
=1-	=1-	=1-
4DD-	4D- 4F 4A-	p
4GGG-	4D- 4G- 4B-	.
=2	=2	=2
4.DD-	4.D- 4.F 4.A-	.
8GGG-	8D- 8E- 8B-	.
=3	=3	=3
4AAA-	4D- 4E- 4A-	.
8..AA-L	4C 4E- 4A-	.
32GG-Jkk	.	.
=4	=4	=4
8.FFL	2D- 2F 2A-	.
16GG-Jk	.	.
16.AA-LL	.	.
32GG-k	.	.
16.FF	.	.
32EE-JJk	.	.
=5	=5	=5
4DD- 4D-	4F 4A- 4d-	.
4GGG- 4GG-	4G- 4B- 4d-	sfp
=6	=6	=6
4.DD- 4.D-	4.F 4.A- 4.d-	.
(<8BBB-- (>8BB--	8En 8Gn 8d-	.
=7	=7	=7
4AAA-) 4AA-)	4E-X 4G-X 4d-	.
[4AA-	4E- 4G- 4c	.
=8	=8	=8
(16.AA-LL]	4.D- 4.F 4.d-	.
32GG-k	.	.
16.FF	.	.
32EE-JJk	.	.
8DD-)	.	.
8r	8r	.
=9:|!|:	=9:|!|:	=9:|!|:
*>B	*>B	*>B
4GG- 4AA-	4C 4E- 4A-	p
8..EE- 8..AA-L	8..C 8..G- 8..A-L	.
32GG- 32AA-Jkk	32C 32E- 32A-Jkk	.
=10	=10	=10
8.FF 8.AA-L	8.D- 8.F 8.A-L	<
16DD- 16AA-Jk	16F 16A- 16d-Jk	[
8EE- 8AA-L	8G- 8A- 8cL	>
8DD- 8AA-J	8F 8A- 8d-J	)
.	.	]
=11	=11	=11
4GG- 4AA-	4C 4E- 4A-	.
8..EE- 8..AA-L	8..C 8..G- 8..A-L	.
32GG- 32AA-Jkk	32C 32E- 32A-Jkk	.
=12	=12	=12
*	*^	*
8.FF 8.AA-L	4ryy	8.D- 8.F 8.A-L	<
16DD- 16AA-Jk	.	16F 16A- 16fJk	[
8CC 8AA-L	(16fLL	8G- 8A-L	>
.	16e-J	.	)
8DD- 8AA-J	8d-J)	8F 8A-J	)
.	.	.	]
*	*v	*v	*
=13	=13	=13
!	!LO:TX:b:i:t=cresc.	!
4GG- 4AA-	4C 4E- 4A-	<
8..EE- 8..AA-L	8..C 8..G- 8..A-L	.
32GG- 32AA-Jkk	32C 32E- 32A-Jkk	.
*	*clefG2	*clefG2
=14	=14	=14
*	*^	*
(8.FF 8.FL<	8.A- 8.d- 8.a-L	4ryy	rfz
16DD- 16D-Jk	16d- 16f 16a-Jk	.	>
8EE- 8E-L<	(16a-LL	8c 8e-L	)
.	16g-J	.	)
8FF 8FJ)	8fJ)	8A- 8d-J	)
.	.	.	]
*	*v	*v	*
=15	=15	=15
4GG-	(>4G- 4B- 4e-	p
*	*clefF4	*clefF4
[4AA-	4C 4E- 4A-	.
=16	=16	=16
(16.AA-LL]	4.D- 4.F 4.d-)	.
32GG-k	.	.
16.FF	.	.
32EE-JJk)	.	.
8DD-	.	.
8r	8r	.
=17:|!	=17:|!	=17:|!
*>C	*>C	*>C
8r	8D- 8F 8A-	p
4DD-	8r	.
.	8D- 8G- 8B-	.
[8GGG-	8r	.
=18!|:	=18!|:	=18!|:
*>D	*>D	*>D
8GGG-]	8D- 8F 8A-	.
4AAA-	8r	.
.	8D- 8E- 8B-	.
[8GGGn	8r	.
=19	=19	=19
8GGG]	8D- 8E- 8A-	.
4AAA-	8r	.
.	8C 8E- 8A-	.
[8GG-	8r	.
=20	=20	=20
16GG-LK]	16G-LL	.
8FF	16r	.
.	16F	.
8EE-	16r	.
.	16E-	.
8DD-	16r	.
.	16D-JJ	.
[16CCJk	16r	.
=21	=21	=21
8CC]	8F 8A- 8d-	.
4DD-	8r	.
.	8G- 8B- 8d-	.
[8GG-	8r	.
=22	=22	=22
8GG-]	8F 8A- 8d-	<
4AA-	8r	.
.	8En 8Gn 8d-	.
[8AAn	8r	.
=23	=23	=23
8AA]	8E- 8G- 8d-	>
4AA-	8r	.
.	8E- 8G- 8c	.
[8AAA-	8r	.
=24	=24	=24
*>D1	*>D1	*>D1
16AAA-LK]	16D- 16F 16d-LL	.
8DD-	16r	.
.	16A-	.
8AA-	16r	.
.	16F	.
8FF	16r	.
.	16E-JJ	.
[16EE-Jk	16r	.
=25	=25	=25
8EE-]	8D- 8F 8A-	.
4DD-	8r	.
.	8D- 8G- 8B-	.
(8GGG-	8r	.
=26:|!	=26:|!	=26:|!
*>D2	*>D2	*>D2
16AAA-LK)	16D- 16F 16d-LL	.
8DD-	16r	.
.	16A-	.
8AA-	16r	.
.	16F	.
8FF	16r	.
.	16D-JJ	.
16DD-Jk	16r	.
=27!|:	=27!|:	=27!|:
*>E	*>E	*>E
8r	8C 8E- 8A-	p
4GG-	8r	.
.	8C 8E- 8A-	<
*clefG2	*	*
[8g-	8r	.
=28	=28	=28
(16g-LL]	8D- 8F 8A-	.
16fJJ)	.	.
*clefF4	*	*
16r	16FLL	.
16D-LL	16r	.
16r	16G-	.
16E-	16r	.
16r	16A-JJ	.
16FJJ	16r	.
=29	=29	=29
8r	8C 8E- 8A-	.
4GG-	8r	.
.	8E- 8A- 8c	.
*clefG2	*	*
8g- [8a-	8r	.
=30	=30	=30
*^	*	*
8a-]	16g-LL	8F 8A- 8d-	.
.	16fJJ	.	.
*v	*v	*	*
*clefF4	*	*
*^	*	*
8r	16r	16A-LL	.
.	16D- 16FLL	16r	.
4r	16r	16c	.
.	16E- 16G-	16r	.
.	16r	16d-JJ	.
.	16F 16A-JJ	16r	.
*v	*v	*	*
=31	=31	=31
8r	8C 8E- 8A-	f
4GGG- 4GG-	8r	.
.	8G- 8c 8e-	.
*clefG2	*	*
[8cc [8ee-	8r	.
=32	=32	=32
16cc] (16ee-LL]	8F 8d- 8f	.
16dd- 16ffJJ)	.	.
*clefF4	*	*
16r	16F 16f	.
16DD- 16D-LL	16r	.
16r	16G- 16g-	.
16EE- 16E-	16r	.
*	*clefG2	*clefG2
16r	16A- 16a-	.
[16FF [16FJJ	16r	.
=33	=33	=33
8FF] 8F]	8B- 8b-	p
(4GG-	8r	.
*	*clefF4	*clefF4
.	8C 8E- 8A-	.
[8AA-)	8r	.
=34	=34	=34
*>E1	*>E1	*>E1
(16AA-LK]	16G-LL	.
8GG-	16r	.
.	16F	.
8FF	16r	.
.	16E-	.
8EE-	16r	.
.	16D-JJ	.
16DD-Jk)	16r	.
=35:|!	=35:|!	=35:|!
*>E2	*>E2	*>E2
16AA-LK	16FLL	.
8FF	16r	.
.	16E-	.
[16EE-Jk	16r	.
(8EE-L]	16D-JJ	.
.	16r	.
8DD-J)	8r	.
*	*clefG2	*clefG2
=36!|:	=36!|:	=36!|:
*>F	*>F	*>F
(4D-	16a-LL	p
.	16f	.
.	16d-	.
.	16a-JJ	.
4GG-	16d-LL	.
.	16b-	.
.	16g-	.
.	16d-JJ	.
=37	=37	=37
4.D-	16a-LL	.
.	16f	.
.	16d-	.
.	16a-JJ	.
.	16d-LL	.
.	16a-	.
8GG-	16d- 16e-	.
.	16b-JJ	.
=38	=38	=38
4AA-	16a-LL	.
.	16e-	.
.	16d-	.
.	16a-JJ	.
[4A-)	16cLL	.
.	16a-	.
.	16e-	.
.	16cJJ	.
=39	=39	=39
(8A-L]	16a-LL	.
.	16f	.
16G-L	16d-	.
16FJJ	16a-JJ	.
8E-L	16fLL	.
.	16dd-	.
8D-J)	16a-	.
.	16fJJ	.
=40	=40	=40
(4d-	16dd-LL	.
.	16a-	.
.	16f	.
.	16dd-JJ	.
4G-	16g-LL	.
.	16dd-	.
.	16b-	.
.	16g-JJ	.
=41	=41	=41
4.d-	16dd-LL	.
.	16a-	.
.	16f	.
.	16dd-JJ	.
.	16fLL	.
.	16dd-	.
8An	16en 16gn	.
.	16dd-JJ	.
=42	=42	=42
4A-	16e-LL	.
.	16dd-	.
.	16g-	.
.	16e-JJ	.
[4AA-)	16ccLL	.
.	16g-	.
.	16e-	.
.	16ccJJ	.
=43	=43	=43
*>F1	*>F1	*>F1
8AA-L]	16dd-LL	.
.	16a-	.
(16DD-L	16f	.
16FFJJ	16dd-JJ	.
16AA-LL	16a-LL	.
16D-	16f	.
16F	16d-	.
16E-JJ)	16a-JJ	.
=44:|!	=44:|!	=44:|!
*>F2	*>F2	*>F2
8AA-L	16dd-LL	.
.	16a-	.
(16D-L	16f	.
[16FJJ)	16dd-JJ	.
16FLL]	16a-LL	.
(16D-	16f	.
16F	16d-	.
16A-JJ)	16a-JJ	.
=45!|:	=45!|:	=45!|:
*>G	*>G	*>G
*^	*	*
(2A-	4G-	16a-LL	.
.	.	16e-	.
.	.	16c	.
.	.	16a-JJ	.
.	4E-	16cLL	.
.	.	16a-	.
.	.	16g-	.
.	.	16cJJ	.
*v	*v	*	*
=46	=46	=46
8F 8A-L	16d-LL	<
.	16f	.
16E- 16A-L	16a-	.
16F 16A-JJ	16dd-JJ	.
8E- 8A-L	16ccLL	>
.	16g-	.
8D-) 8A-J	16dd-	.
.	16fJJ	.
=47	=47	=47
*^	*	*
2A-	(4G-	16a-LL	.
.	.	16e-	.
.	.	16c	.
.	.	16a-JJ	.
.	4E-	16cLL	.
.	.	16a-	.
.	.	16g-	.
.	.	16cJJ	.
*v	*v	*	*
=48	=48	=48
8F 8A-L	16d-LL	<
.	16f	.
16E- 16A-L	16a-	.
16D- 16A-JJ	16ffJJ	.
8C 8A-L	16ee-LL	>
.	16g-	.
8D-) 8A-J	16dd-	.
.	16fJJ	.
=49	=49	=49
*^	*	*
(2A-	4G-	16a-LL	.
.	.	16e-	.
.	.	16c	.
.	.	16a-JJ	.
.	4E-	16cLL	.
.	.	16a-	.
.	.	16g-	.
.	.	16cJJ	.
*v	*v	*	*
=50	=50	=50
8F 8A- 8d-L	16r	.
.	16aa-LL	>
16E- 16G- 16d-L	16a-	.
16D- 16F 16d-JJ	16aa-JJ	.
8E- 8G- 8cL	16gg-LL	.
.	16a-	.
8F 8A- 8d-J	16ff	.
.	16a-JJ	.
=51	=51	=51
4G-) 4B- 4e-	16ee-LL	p
.	16b-	.
.	16g-	.
.	16ee-JJ	.
[4A- (4c	16a-LL	.
.	16g-	.
.	16e-	.
.	16a-JJ	.
=52	=52	=52
*>G1	*>G1	*>G1
8A-] 8d-)	16fLL	.
.	16dd-	.
(16D-LL	16a-	.
16E-JJ	16fJJ	.
16F)	16d-	.
16D- 16A-LL	16r	.
16E- 16A-	8r	.
16F' (16A-'JJ	.	.
=53:|!	=53:|!	=53:|!
*>G2	*>G2	*>G2
8A- 8d-L)	16fLL	.
.	16dd-	.
8D-J	16a-	.
.	16fJJ	.
*clefG2	*	*
32r	16d-	.
32a-LLL	.	.
32f	16r	.
32a-JJJ	.	.
32enLLL	8r	.
32a-	.	.
32f	.	.
32a-JJJ	.	.
=54	=54	=54
*>H	*>H	*>H
32d-LLL	8r	.
32a-	.	.
32f	.	.
32a-JJJ	.	.
32dd-LLL	4aa-	.
32a-	.	.
32f	.	.
32a-JJJ	.	.
32d-LLL	.	.
32b-	.	.
32g-	.	.
32b-JJJ	.	.
32dd-LLL	[8bb-	.
32b-	.	.
32g-	.	.
32b-JJJ	.	.
=55	=55	=55
32d-LLL	8bb-]	.
32a-	.	.
32f	.	.
32a-JJJ	.	.
32dd-LLL	4aa-	.
32a-	.	.
32f	.	.
32a-JJJ	.	.
32d-LLL	.	.
32a-	.	.
32f	.	.
32a-JJJ	.	.
32FLLL	8dd- 8ee- 8bb-	.
32g-	.	.
32e-	.	.
32g-JJJ	.	.
=56	=56	=56
32A-LLL	8dd- 8ee- 8aa-L	.
32g-	.	.
32e-	.	.
32g-JJJ	.	.
32A-LLL	8dd- 8ee- 8aa-J	.
32g-	.	.
32e-	.	.
32g-JJJ	.	.
32A-LLL	8cc 8ee- 8aa-L	.
32g-	.	.
32e-	.	.
32g-JJJ	.	.
32A-LLL	8cc 8ee- 8aa-J	.
32g-	.	.
32e-	.	.
32g-JJJ	.	.
=57	=57	=57
32d-LLL	8dd- 8ff 8aa-	.
32e-	.	.
32f	.	.
32g-JJJ	.	.
32a-LLL	8r	.
32b-	.	.
32a-	.	.
32g-JJJ	.	.
32fLLL	4r	.
32g-	.	.
32a-	.	.
32b-JJJ	.	.
32ccLLL	.	.
32dd-	.	.
32a-	.	.
32g-JJJ	.	.
=58	=58	=58
32fLLL	8r	.
32dd-	.	.
32a-	.	.
32dd-JJJ	.	.
32ffLLL	4aa- 4ddd-	.
32dd-	.	.
32a-	.	.
32dd-JJJ	.	.
32g-LLL	.	.
32dd-	.	.
32b-	.	.
32dd-JJJ	.	.
32gg-LLL	[8bb- [8ddd-	.
32dd-	.	.
32b-	.	.
32dd-JJJ	.	.
=59	=59	=59
32fLLL	8bb-] 8ddd-]	.
32dd-	.	.
32a-	.	.
32dd-JJJ	.	.
32ffLLL	4aa- 4ddd-	.
32dd-	.	.
32a-	.	.
32dd-JJJ	.	.
32fLLL	.	.
32dd-	.	.
32a-	.	.
32dd-JJJ	.	.
32enLLL	8dd- 8ggn 8ddd-	.
32b-	.	.
32gn	.	.
32b-JJJ	.	.
=60	=60	=60
32e-LLL	8dd- 8gg- 8ddd-L	f
32an	.	.
32g-	.	.
32aJJJ	.	.
32e-LLL	8dd- 8gg- 8ddd-J	.
32a	.	.
32g-	.	.
32aJJJ	.	.
32e-LLL	8cc 8gg- 8cccL	.
32a-	.	.
32g-	.	.
32a-JJJ	.	.
32e-LLL	8cc 8gg- 8cccJ	.
32a-	.	.
32g-	.	.
32a-JJJ	.	.
=61	=61	=61
8d- 8f 8a-	32ddd-LLL	.
.	32eee-	.
.	32fff	.
.	32cccJJJ	.
8r	32ddd-LLL	.
.	32aa-	.
.	32bb-	.
.	32gg-JJJ	.
4r	32ffLLL	.
.	32aa-	.
.	32gg-	.
.	32ee-JJJ	.
.	32dd-LLL	.
.	32ff	.
.	32ee-	.
.	32ccJJJ	.
=62	=62	=62
8r	32dd-LLL	.
.	32ee-	.
.	32dd-	.
.	32ccJJJ	.
4d- 4f 4a-	32dd-LLL	.
.	32aa-	.
.	32ggn	.
.	32aa-JJJ	.
.	32dd-LLL	.
.	32ee-	.
.	32dd-	.
.	32ccJJJ	.
[8d- [8g- [8b-	32dd-LLL	.
.	32bb-	.
.	32aan	.
.	32bb-JJJ	.
=63	=63	=63
8d-] 8g-] 8b-]	32dd-LLL	.
.	32ee-	.
.	32dd-	.
.	32ccJJJ	.
4d- 4f 4a-	32dd-LLL	.
.	32aa-	.
.	32ggn	.
.	32aa-JJJ	.
.	32dd-LLL	.
.	32aa-	.
.	32gg	.
.	32aa-JJJ	.
8G- 8d- 8e- 8g-	32dd-LLL	.
.	32bb-	.
.	32aan	.
.	32bb-JJJ	.
=64	=64	=64
8A- 8d- 8e- 8g-L	32dd-LLL	.
.	32aa-	.
.	32ggn	.
.	32aa-JJJ	.
8A- 8d- 8e- 8g-J	32dd-LLL	.
.	32aa-	.
.	32gg	.
.	32aa-JJJ	.
8A- 8c 8e- 8g-L	32ccLLL	.
.	32aa-	.
.	32gg	.
.	32aa-JJJ	.
8A- 8c 8e- 8g-J	32ccLLL	.
.	32aa-	.
.	32gg	.
.	32aa-JJJ	.
=65	=65	=65
8d- 8f	32aa-LLL	>
.	32gg-	.
.	32ff	.
.	32ee-JJJ	.
8r	32dd-LLL	p
.	32ee-	.
.	32ff	.
.	32gg-JJJ	.
4r	32aa-LLL	.
.	32gg-	.
.	32ff	.
.	32gg-JJJ	.
.	32aa-LLL	.
.	32bb-	.
.	32ccc	.
.	32ddd-JJJ	.
=66	=66	=66
8r	32ffLLL	.
.	32gg-	.
.	32ff	.
.	32eenJJJ	.
4a- 4dd-	32ffLLL	.
.	32ddd-	.
.	32ccc	.
.	32ddd-JJJ	.
.	32gg-LLL	.
.	32aa-	.
.	32gg-	.
.	32ffJJJ	.
[8b- [8dd-	32gg-LLL	.
.	32ddd-	.
.	32ccc	.
.	32ddd-JJJ	.
=67	=67	=67
8b-] 8dd-]	32ffLLL	.
.	32gg-	.
.	32ff	.
.	32eenJJJ	.
4a- 4dd-	32ffLLL	.
.	32ddd-	.
.	32ccc	.
.	32ddd-JJJ	.
.	32ffLLL	.
.	32ddd-	.
.	32ccc	.
.	32ddd-JJJ	.
8b--	32een 32ggnLLL	.
.	32ddd-	.
.	32ccc	.
.	32ddd-JJJ	.
=68	=68	=68
8a-L	32ee- 32gg-LLL	.
.	32ddd-	.
.	32ccc	.
.	32ddd-JJJ	.
8a-J	32ee- 32gg-LLL	.
.	32ddd-	.
.	32ccc	.
.	32ddd-JJJ	.
8A-L	32ee- 32gg-LLL	.
.	32ccc	.
.	32bb-	.
.	32cccnJJJ	.
8A-J	32ee- 32gg-LLL	.
.	32ccc	.
.	32bb-	.
.	32cccJJJ	.
=69	=69	=69
32A-LLL	8dd- 8ff 8ddd-	.
32B-	.	.
32c	.	.
32d-JJJ	.	.
32cLLL	8r	.
32d-	.	.
32e-	.	.
32fJJJ	.	.
32e-LLL	4r	.
32f	.	.
32g-	.	.
32a-JJJ	.	.
32b-LLL	.	.
32cc	.	.
32dd-	.	.
32a-JJJ	.	.
=70	=70	=70
32g-LLL	8r	.
32ee-	.	.
32cc	.	.
32ee-JJJ	.	.
32bnLLL	4aa-	.
32ee-	.	.
32cc	.	.
32ee-JJJ	.	.
32gg-LLL	.	.
32ee-	.	.
32cc	.	.
32ee-JJJ	.	.
32g-LLL	8aa-	.
32ee-	.	.
32cc	.	.
32ee-JJJ	.	.
=71	=71	=71
32fLLL	8aa-L	.
32dd-	.	.
32a-	.	.
32dd-JJJ	.	.
32fLLL	8aa-	.
32dd-	.	.
32a-	.	.
32dd-JJJ	.	.
32e-LLL	8aa-	.
32cc	.	.
32g-	.	.
32ccJJJ	.	.
32d-LLL	8aa-J	.
32dd-	.	.
32f	.	.
32dd-JJJ	.	.
=72	=72	=72
32g-LLL	8r	.
32ee-	.	.
32cc	.	.
32ee-JJJ	.	.
32bnLLL	4aa-	.
32ee-	.	.
32cc	.	.
32ee-JJJ	.	.
32gg-LLL	.	.
32ee-	.	.
32cc	.	.
32ee-JJJ	.	.
32g-LLL	8aa-	.
32ee-	.	.
32cc	.	.
32ee-JJJ	.	.
=73	=73	=73
32fLLL	8aa-L	.
32ff	.	.
32dd-	.	.
32ffJJJ	.	.
32a-LLL	8aa-	.
32ff	.	.
32dd-	.	.
32ffJJJ	.	.
32g-LLL	8aa-	.
32ee-	.	.
32cc	.	.
32ee-JJJ	.	.
32fLLL	8aa-J	.
32dd-	.	.
32a-	.	.
32dd-JJJ	.	.
=74	=74	=74
32ccLLL	8r	.
32gg-	.	.
32ee-	.	.
32gg-JJJ	.	.
32aa-LLL	(8cccL	<
32gg-	.	.
32ee-	.	.
32gg-JJJ	.	.
32aa-LLL	8bbn	.
32gg-	.	.
32ee-	.	.
32gg-JJJ	.	.
32aa-LLL	8cccJ)	.
32gg-	.	.
32ee-	.	.
32gg-JJJ	.	.
=75	=75	=75
32ffLLL	(8ddd-L	.
32aa-	.	.
32ff	.	.
32aa-JJJ	.	.
32ddd-LLL	8fff	.
32aa-	.	.
32ddd-	.	.
32aa-JJJ	.	.
32cccLLL	8eee-	.
32gg-	.	.
32ccc	.	.
32gg-JJJ	.	.
32ffLLL	8ddd-J)	.
32aa-	.	.
32ff	.	.
32aa-JJJ	.	.
=76	=76	=76
32bb-LLL	4ggg-	ff
32gg-	.	.
32bb-	.	.
32aa-JJJ	.	.
32gg-LLL	.	.
32ff	.	.
32ee-	.	.
32dd-JJJ	.	.
32ccLLL	4ee- 4gg- 4aa-	.
32b-	.	.
32a-	.	.
32g-JJJ	.	.
32fLLL	.	.
32e-	.	.
32d-	.	.
32cJJJ	.	.
=77	=77	=77
8d-	32ff 32aa-LLL	.
.	32bb-	.
.	32aa-	.
.	32gg-JJJ	.
8r	32ffLLL	.
.	32gg-	.
.	32aa-	.
.	32bb-JJJ	.
4r	32cccLLL	.
.	32ddd-	.
.	32aa-	.
.	32gg-JJJ	.
.	32ffLLL	.
.	32aa-	.
.	32ff	.
.	32dd-JJJ	.
*clefF4	*	*
=78	=78	=78
8r	32ccLLL	.
.	32aa-	.
.	32bb-	.
.	32aa-JJJ	.
4G-	32cccLLL	.
.	32aa-	.
.	32bb-	.
.	32aa-JJJ	.
.	32eee-LLL	.
.	32aa-	.
.	32bb-	.
.	32aa-JJJ	.
*clefG2	*	*
[8g- [8a- [8ee-	32cccLLL	.
.	32aa-	.
.	32bb-	.
.	32aa-JJJ	.
=79	=79	=79
(8g-] 8a-] 8ee-L]	32ddd-LLL	.
.	32aa-	.
.	32bb-	.
.	32aa-JJJ	.
16f) 16a- 16dd-Jk	32ddd-LLL	.
.	32aa-	.
16r	32bb-	.
.	32aa-JJJ	.
16e- 16a- 16cc	32gg-LLL	.
.	32aa-	.
16r	32bb-	.
.	32aa-JJJ	.
16d- 16a- 16dd-	32ffLLL	.
.	32aa-	.
16r	32bb-	.
.	32aa-JJJ	.
=80	=80	=80
8r	32ccLLL	.
.	32aa-	.
.	32bb-	.
.	32aa-JJJ	.
*clefF4	*	*
4G-	32cccLLL	.
.	32aa-	.
.	32bb-	.
.	32aa-JJJ	.
.	32eee-LLL	.
.	32aa-	.
.	32bb-	.
.	32aa-JJJ	.
*clefG2	*	*
[8cc [8ee- [8gg-	32bb-LLL	.
.	32aa-	.
.	32bb-	.
.	32aa-JJJ	.
=81	=81	=81
8cc] 8ee-] (8gg-L]	32bb-LLL	.
.	32aa-	.
.	32bb-	.
.	32aa-JJJ	.
16a- 16dd- 16ffJk)	32ddd-LLL	.
.	32aa-	.
16r	32bb-	.
.	32aa-JJJ	.
16g- 16cc 16ee-	32eee-LLL	.
.	32aa-	.
16r	32bb-	.
.	32aa-JJJ	.
16f 16a- 16dd-	32fffLLL	.
.	32aa-	.
16r	32bb-	.
.	32aa-JJJ	.
=82	=82	=82
*	*8va	*
8r	32eee-LLL	<
.	32ccc	.
.	32ddd-	.
.	32cccJJJ	.
4g- 4cc 4ee-	32eee-LLL	.
.	32ccc	.
.	32ddd-	.
.	32cccJJJ	.
.	32aaa-LLL	.
.	32ccc	.
.	32ddd-	.
.	32cccJJJ	.
[8ee- 8gg- (8aa-	32aaa-LLL	.
.	32ccc	.
.	32ddd-	.
.	32cccJJJ	.
=83	=83	=83
8ee-L])	32aaa-LLL	.
.	32ccc	.
.	32ddd-	.
.	32cccJJJ	.
16dd- 16ff 16aa-Jk	32aaa-LLL	.
.	32ddd-	.
16r	32eee-	.
.	32ddd-JJJ	.
16g- 16cc 16ee- 16gg-	32aaa-LLL	.
.	32eee-	.
16r	32fff	.
.	32eee-JJJ	.
16f 16a- 16dd- 16ff	32aaa-LLL	.
.	32fff	.
16r	32ggg-	.
.	32fffJJJ	.
=84	=84	=84
8r	32bbb-LLL	ff
.	32ggg-	.
.	32bbb-	.
.	32aaa-JJJ	.
16e- 16g- 16b- 16dd-	32ggg-LLL	.
.	32fff	.
16r	32eee-	.
.	32ddd-JJJ	.
*	*X8va	*
8r	32cccLLL	.
.	32bb-	.
.	32aa-	.
.	32gg-JJJ	.
16A- 16c 16e- 16g-	32ffLLL	.
.	32ee-	.
16r	32dd-	.
.	32ccJJJ	.
*clefF4	*	*
=85	=85	=85
4r	32dd-LLL	>
.	32b-	.
.	32a-	.
.	32g-JJJ	.
.	32fLLL	.
.	32e-	.
.	32d-	.
.	32cJJJ	.
*	*clefF4	*clefF4
8r	32B-LLL	.
.	32A-	.
.	32G-	.
.	32FJJJ	.
16r	32E-LLL	.
.	32D-JJJ	.
32AA-LLL	16r	.
32FFJJJ	.	.
=86	=86	=86
4DD-	4D- 4F (4A-	p
4GGG-	4D- 4G- 4B-	.
=87	=87	=87
4.DD-	4.D- 4.F 4.A-)	.
*	*clefG2	*clefG2
8G-'	8d- 8e- 8b-	.
=88	=88	=88
[4A-	(4d-' 4e-' 4a-'	.
(16A-LL]	4c') 4e-' 4a-'	.
16G-	.	.
16F	.	.
16E-JJ)	.	.
=89	=89	=89
(16D-LL	8d- 8f 8a-	.
16BB-	.	.
16AA-	8r	.
16GG-JJ	.	.
16FFLL	4r	.
16AA-	.	.
16GG-	.	.
16EE-JJ)	.	.
*	*clefF4	*clefF4
=90	=90	=90
(4DD- 4D-	4F 4A- 4d-	.
4GGG- 4GG-	4G- 4B- 4d-	.
=91	=91	=91
4.DD-) 4.D-	4.F 4.A- 4.d-	.
*	*clefG2	*clefG2
(8B--	8en 8gn 8dd-	.
=92	=92	=92
[4A-)	4e- 4g- 4dd-	.
(16A-LL]	4e- 4g- 4cc	.
16G-	.	.
16E-	.	.
16CJJ)	.	.
=93	=93	=93
(16AA-LL	8d- 8f 8dd-	.
16FF	.	.
16EE-	8r	.
16DD-JJ	.	.
16CCLL	4r	.
16DD-	.	.
16FF	.	.
16DD-JJ)	.	.
*	*clefF4	*clefF4
=94	=94	=94
(4GG- 4AA-	4C 4E- 4A-	.
8..EE- 8..AA-L	8..C 8..G- 8..A-L	.
32GG- 32AA-Jkk	32C 32E- 32A-Jkk	.
=95	=95	=95
8.FF) 8.AA-	8.D- 8.F 8.A-	.
*	*clefG2	*clefG2
(16d-	16f 16a- 16dd-	.
8e-L	8g- 8a- 8ccL	.
8d-J)	8f 8a- 8dd-J	.
*	*clefF4	*clefF4
=96	=96	=96
4GG- 4AA-	4C 4E- 4A-	.
(8..EE- 8..AA-L	8..C 8..G- 8..A-L	.
32GG- 32AA-Jkk	32C 32E- 32A-Jkk	.
=97	=97	=97
*	*^	*
8.FF) 8.AA-	8.r	8.D-' 8.F' 8.A-'	.
*	*v	*v	*
*	*clefG2	*clefG2
*	*^	*
(16d-	16a- 16ff	16f	.
8cL	16ffLL	8g- 8a-L	.
.	16ee-J	.	.
8d-J)	8dd-J	8f 8a-J	.
*	*v	*v	*
*	*clefF4	*clefF4
=98	=98	=98
4GG- 4AA-	4C 4E- 4A-	<
8..EE- 8..AA-L	8..C 8..G- 8..A-L	.
32GG- 32AA-Jkk	32C 32E- 32A-Jkk	.
*clefG2	*clefG2	*clefG2
=99	=99	=99
*	*^	*
(8.fL	4r	8.a- 8.dd- (8.aa-L	.
16fJk	.	16dd- 16ff 16aa-Jk	.
8g-L	16aa-LL	8cc 8ee-L	>
.	16gg-J	.	.
16f 16a-L	8ffJ)	8dd-J	.
16d-) 16fJJ	.	.	.
*	*v	*v	*
*clefF4	*	*
=100	=100	=100
4G- 4B-	4g- 4b- (4ee-	p
4A- 4c	4e- 4a-	.
=101	=101	=101
2BB-; 2D-; 2En; 2Gn; 2B-;	2d-; 2en; 2gn; 2dd-;)	pp
*clefG2	*	*
=102	=102	=102
2B-; 2d-; 2en; 2gn; 2b-;	2dd-; 2een; 2ggn; 2ddd-;	ff
=	=	=
*-	*-	*-
!!!RDF**kern: > = above
!!!RDF**kern: < = below
!!!LOR: Durand 1915, plates 9327/9328, Paul Dukas, ed.
!!!URL-vhv: https://verovio.humdrum.org/?file=beethoven/sonatas/sonata23-2.krn
!!!URL-pdf: https://github.com/craigsapp/beethoven-piano-sonatas/blob/master/reference-edition/sonata23-2.pdf
!!!ENC: Craig Stuart Sapp
!!!END: 2008/02/19/
!!!EEV: 2014/07/13/ (added ottavas)
